icons/ui_settings.svg

<svg width="48" height="48" viewBox="0 0 48 48" fill="none" xmlns="http://www.w3.org/2000/svg">
<path fill-rule="evenodd" clip-rule="evenodd" d="M19.1337 5.60254H28.8661V7.26629C29.0126 8.87128 29.2372 10.077 29.5543 10.9513C29.8723 11.8284 30.2484 12.2773 30.6373 12.5063C31.0238 12.7339 31.5893 12.8421 32.4944 12.6867C33.3993 12.5313 34.5467 12.128 36.0045 11.4505L37.4997 10.5872L42.3659 19.0157L41.1593 19.7124C39.7753 20.6754 38.7937 21.4995 38.162 22.2349C37.528 22.9729 37.317 23.5387 37.3125 24.0006C37.308 24.4592 37.5053 25.0179 38.1235 25.7471C38.7414 26.4759 39.7121 27.2939 41.0937 28.2505L42.3659 28.985L41.847 29.8839L37.4997 37.4135L35.9392 36.5125C34.4546 35.8363 33.3008 35.448 32.4021 35.3171C31.5097 35.1871 30.9672 35.3234 30.5944 35.5814C30.2043 35.8513 29.8269 36.3734 29.5197 37.3675C29.2132 38.3594 29.0107 39.7105 28.8899 41.49L28.8661 41.4901V42.3982H19.1337V40.3216C18.9753 38.781 18.7374 37.6437 18.4114 36.8344C18.0869 36.0291 17.7105 35.633 17.3167 35.4366C16.9099 35.2338 16.3087 35.1561 15.3611 35.3504C14.4198 35.5434 13.2382 35.984 11.7514 36.691L10.5 37.4135L5.63379 28.985L7.45592 27.933C8.6713 27.0525 9.52436 26.295 10.0673 25.6193C10.611 24.9429 10.7887 24.4184 10.785 23.9831C10.7813 23.5464 10.5936 23.0179 10.0337 22.3372C9.47486 21.6577 8.60171 20.8965 7.36038 20.0125L5.63379 19.0157L10.5 10.5872L11.548 11.1923C13.0692 11.9187 14.2838 12.3798 15.2557 12.5904C16.2364 12.8029 16.8648 12.7374 17.2897 12.5397C17.6947 12.3514 18.0759 11.9675 18.4038 11.1785C18.7349 10.3821 18.9763 9.25363 19.1337 7.71374V5.60254ZM11.252 34.7161C12.646 34.0715 13.8779 33.6128 14.9595 33.3911C16.1436 33.1484 17.2502 33.1687 18.2091 33.6467C19.1809 34.1312 19.8279 34.9986 20.2665 36.087C20.6999 37.1629 20.9631 38.5339 21.1286 40.1701L21.1337 40.2203V40.3982H26.9705C27.1012 38.9821 27.3015 37.7719 27.6089 36.777C27.9827 35.5673 28.5493 34.5644 29.4563 33.9367C30.3808 33.297 31.4888 33.1629 32.6904 33.338C33.8643 33.509 35.2178 33.9865 36.7628 34.69L39.6533 29.6835C38.3601 28.7682 37.327 27.9004 36.598 27.0404C35.8021 26.1016 35.3017 25.0921 35.3126 23.981C35.3234 22.8732 35.8408 21.8678 36.6448 20.9317C37.3718 20.0854 38.3901 19.2286 39.6572 18.3241L36.7594 13.3049C35.2759 13.9894 33.9713 14.4623 32.833 14.6578C31.6538 14.8604 30.5579 14.7806 29.6224 14.2297C28.6893 13.6802 28.0828 12.7601 27.6741 11.6332C27.2836 10.5564 27.0421 9.20538 26.8888 7.60254H21.1337V7.81438L21.1287 7.86423C20.9641 9.5028 20.6964 10.874 20.2506 11.9463C19.7982 13.0346 19.1291 13.8899 18.1333 14.3531C17.1574 14.8071 16.0344 14.8056 14.8321 14.5451C13.7856 14.3183 12.5991 13.8778 11.2624 13.2666L8.36584 18.2836L8.4419 18.3276L8.48013 18.3547C9.79908 19.2909 10.8494 20.1804 11.5784 21.0668C12.3122 21.959 12.7761 22.9168 12.785 23.9661C12.7939 25.0167 12.3452 25.9777 11.6263 26.8722C10.9128 27.7599 9.88033 28.6495 8.58573 29.5842L8.54445 29.614L8.36584 29.7171L11.252 34.7161Z" fill="black"/>
<path fill-rule="evenodd" clip-rule="evenodd" d="M23.9999 26.9999C25.6568 26.9999 26.9999 25.6568 26.9999 23.9999C26.9999 22.3431 25.6568 20.9999 23.9999 20.9999C22.343 20.9999 20.9999 22.3431 20.9999 23.9999C20.9999 25.6568 22.343 26.9999 23.9999 26.9999ZM23.9999 28.9999C26.7613 28.9999 28.9999 26.7614 28.9999 23.9999C28.9999 21.2385 26.7613 18.9999 23.9999 18.9999C21.2385 18.9999 18.9999 21.2385 18.9999 23.9999C18.9999 26.7614 21.2385 28.9999 23.9999 28.9999Z" fill="black"/>
<path fill-rule="evenodd" clip-rule="evenodd" d="M23.9999 30.9999C27.8659 30.9999 30.9999 27.8659 30.9999 23.9999C30.9999 20.1339 27.8659 16.9999 23.9999 16.9999C20.1339 16.9999 16.9999 20.1339 16.9999 23.9999C16.9999 27.8659 20.1339 30.9999 23.9999 30.9999ZM23.9999 32.9999C28.9705 32.9999 32.9999 28.9705 32.9999 23.9999C32.9999 19.0294 28.9705 14.9999 23.9999 14.9999C19.0293 14.9999 14.9999 19.0294 14.9999 23.9999C14.9999 28.9705 19.0293 32.9999 23.9999 32.9999Z" fill="black"/>
</svg>

<svg
  xmlns="http://www.w3.org/2000/svg"
  width="24"
  height="24"
  viewBox="0 0 24 24"
  fill="none"
  stroke="currentColor"
  stroke-width="2"
  stroke-linecap="round"
  stroke-linejoin="round"
>
  <path
    fill-rule="evenodd"
    d="M19.134 5.603h9.732v1.663c.147 1.605.371 2.811.688 3.685.318.877.694 1.326 1.083 1.555.387.228.952.336 1.857.18.905-.155 2.053-.558 3.51-1.235l1.496-.864 4.866 8.429-1.207.696c-1.384.963-2.365 1.788-2.997 2.523-.634.738-.845 1.304-.85 1.766-.004.458.193 1.017.812 1.746.617.729 1.588 1.547 2.97 2.503l1.272.735-.519.899-4.347 7.53-1.56-.901c-1.485-.677-2.64-1.065-3.538-1.196-.892-.13-1.435.006-1.808.264-.39.27-.767.792-1.074 1.786-.307.992-.51 2.344-.63 4.123h-.024v.908h-9.732v-2.076c-.159-1.541-.397-2.678-.723-3.488-.324-.805-.7-1.201-1.094-1.397-.407-.203-1.008-.28-1.956-.087-.941.193-2.123.634-3.61 1.341l-1.251.722-4.866-8.428 1.822-1.052c1.215-.88 2.068-1.638 2.611-2.314s.722-1.2.718-1.636c-.004-.437-.191-.965-.751-1.646s-1.432-1.44-2.674-2.325l-1.726-.996 4.866-8.429 1.048.605c1.521.727 2.736 1.188 3.708 1.398.98.213 1.609.147 2.034-.05.405-.189.786-.572 1.114-1.361.33-.797.572-1.925.73-3.465zm-7.882 29.113c1.394-.645 2.626-1.103 3.707-1.325 1.185-.243 2.291-.222 3.25.256.972.484 1.619 1.352 2.058 2.44.433 1.076.696 2.447.862 4.083l.005.05v.178h5.837c.13-1.416.33-2.626.638-3.621.374-1.21.94-2.213 1.847-2.84.925-.64 2.033-.774 3.234-.599 1.174.171 2.528.648 4.073 1.352l2.89-5.006c-1.293-.916-2.326-1.784-3.055-2.644-.796-.938-1.296-1.948-1.285-3.059.01-1.108.528-2.113 1.332-3.05.727-.846 1.745-1.702 3.012-2.607l-2.898-5.02c-1.483.685-2.788 1.158-3.926 1.354-1.18.202-2.275.123-3.21-.428-.934-.55-1.54-1.47-1.949-2.597-.39-1.077-.632-2.428-.785-4.03h-5.755v.211l-.005.05c-.165 1.639-.433 3.01-.878 4.082-.453 1.089-1.122 1.944-2.118 2.407-.976.454-2.099.453-3.3.192-1.047-.227-2.234-.667-3.57-1.278l-2.897 5.017.076.044.038.027c1.32.936 2.37 1.825 3.098 2.712.734.892 1.198 1.85 1.207 2.9s-.44 2.01-1.159 2.905c-.713.888-1.746 1.777-3.04 2.712l-.042.03-.178.103z"
    clip-rule="evenodd"
  />
  <path
    fill-rule="evenodd"
    d="M24 27a3 3 0 1 0 0-6 3 3 0 0 0 0 6m0 2a5 5 0 1 0 0-10 5 5 0 0 0 0 10"
    clip-rule="evenodd"
  />
  <path
    fill-rule="evenodd"
    d="M24 31a7 7 0 1 0 0-14 7 7 0 0 0 0 14m0 2a9 9 0 1 0 0-18 9 9 0 0 0 0 18"
    clip-rule="evenodd"
  />
</svg>
